X:1
T:Title
%%score { ( 1 4 ) | ( 2 3 ) }
L:1/8
Q:1/4=84
M:6/8
K:F
V:1 treble nm="Grand Piano"
V:4 treble 
V:2 bass 
V:3 bass 
V:1
 A3 A_A=A | B3 .A3 | [B,EG]3 [B,EG][CFA][B,CG] | [B,G]3 .F3 | A3 A_A=A | B3 .A3 | %6
w: J.~H.~Hall * * *||||||
 [B,EG]3 [B,EG][CFA][B,EG] | [A,F]6 | c3 z3 | d3 .c3 | A3 z3 | [FA]3 .G3 | A3 z3 | B3 .A3 | G3 z3 | %15
w: |||||||||
 F6 |] %16
w: |
V:2
 [F,CF]3 [F,CF][F,=B,F][F,CF] | D3 z3 | C,3 C,C,C, | z3 .A,3 | [F,CF]3 [F,CF][F,=B,F][F,CF] | %5
 D3 .C3 | C,3 C,C,C, | F,6 | A3 z3 | F6 | F3[K:bass] z3 | z3 .E3 | C3[K:treble] z3 | D3 z3 | %14
 E3[K:bass] z3 | z CB, .A,3 |] %16
V:3
 x6 | [F,F]3- [F,CF]3 | x6 | F,6 | x6 | [F,F]6 | x6 | x6 | z2 F, [F,CF][G,CF][A,CF] | B,3 .A,3 | %10
 z2[K:bass] D, [A,CF][G,CE][F,CF] | [C,C]6 | z2 F,[K:treble] [F,CF][F,=B,F][F,CF] | %13
 [F,F]3- [F,CF]3 | z2[K:bass] C, C,C,C, | F,6 |] %16
V:4
 x6 | x6 | x6 | C6 | x6 | x6 | x6 | x6 | z2 F ABc | x6 | z2 C cBA | x6 | z2 F A_A=A | x6 | %14
 z2 B, [B,EG][CFA][B,EG] | A,2 D .C3 |] %16

